X:20
T:O'Sullivan's March
R:march
Z:id:hn-march-20
M:6/8
L:1/8
K:G
GBA ABd | edB A2D | GBA B2G | AGG GED |
GBA ABd | edB A2D | GBA B2G |1 AGG G2D :|2 AGG G2g ||
|: e2g e2g | ege edB | ded dBd | egB BAG |
cBc dcd | e/f/gB A2D | GBA B2G |1 AGG G2g :|2 AGG G2D ||
<end>
<start>
